public/select-carets.svg

<svg fill="none" height="16" viewBox="0 0 9 16" width="9" xmlns="http://www.w3.org/2000/svg"><g clip-rule="evenodd" fill="#fff" fill-rule="evenodd"><path d="m4.49791 15.5671c-.04353.0408-.09522.0732-.15211.0953-.0569.0221-.11789.0335-.17948.0335s-.12258-.0114-.17948-.0335c-.05689-.0221-.10858-.0545-.15211-.0953l-3.517369-3.2966c-.044515-.0406-.079979-.0891-.104334-.1426-.024355-.0536-.037115-.1111-.03754-.1693s.011494-.1159.035065-.1697.058324-.1028.102242-.1439c.043918-.0412.096126-.0738.153593-.0959.057466-.0221.119047-.0332.181167-.0329.062121.0004.123542.0123.1807.0351s.108913.056.15226.0977l3.185786 2.9858 3.18578-2.9858c.04333-.0417.09509-.075.15227-.0979.05717-.0228.11863-.0348.1808-.0352.06216-.0004.12379.0107.18131.0328.05751.0221.10977.0547.15372.0959s.07872.0902.1023.144c.02357.0539.03548.1117.03502.1699-.00045.0582-.01326.1158-.03768.1694-.02441.0535-.05995.102-.10454.1426z"/><path d="m3.65962.128765c.04353-.0408232.09522-.0732081.15212-.0953042.05689-.0220957.11788-.03346828.17947-.03346828.06159.00000001.12258.01137258.17948.03346828.0569.0220961.10859.054481.15211.0953042l3.51737 3.296625c.04452.04059.07998.08906.10434.1426.02435.05353.03711.11106.03753.16926.00043.05819-.01149.11588-.03506.16972s-.05832.10276-.10224.14392c-.04392.04115-.09613.07373-.15359.09583-.05747.0221-.11905.03329-.18117.03291-.06212-.00037-.12354-.0123-.1807-.0351-.05716-.02279-.10891-.05599-.15226-.09768l-3.18578-2.98581-3.185786 2.98581c-.04333.04176-.095089.07503-.152268.09789-.057178.02285-.118636.03483-.180801.03524s-.123797-.01076-.181312-.03286-.109768-.05469-.153719-.09588c-.0439511-.04118-.0787249-.09014-.1022998-.14403-.0235748-.05388-.03547998-.11162-.03502412-.16985.00045586-.05824.01326422-.1158.03768012-.16936.0244155-.05356.0599523-.10203.1045428-.14261z"/></g></svg>

<svg width="9" height="16" viewBox="0 0 9 16" fill="none" xmlns="http://www.w3.org/2000/svg">
<path fill-rule="evenodd" clip-rule="evenodd" d="M4.49791 15.5671C4.45438 15.6079 4.40269 15.6403 4.3458 15.6624C4.2889 15.6845 4.22791 15.6959 4.16632 15.6959C4.10473 15.6959 4.04374 15.6845 3.98684 15.6624C3.92995 15.6403 3.87826 15.6079 3.83473 15.5671L0.317361 12.2705C0.272846 12.2299 0.237382 12.1814 0.213027 12.1279C0.188672 12.0743 0.175912 12.0168 0.175487 11.9586C0.175062 11.9004 0.186981 11.8427 0.210552 11.7889C0.234123 11.7351 0.268876 11.6861 0.312794 11.645C0.356712 11.6038 0.40892 11.5712 0.466387 11.5491C0.523853 11.527 0.585434 11.5159 0.647554 11.5162C0.709675 11.5166 0.771096 11.5285 0.828254 11.5513C0.885412 11.5741 0.937167 11.6073 0.980514 11.649L4.1663 14.6348L7.35208 11.649C7.39541 11.6073 7.44717 11.574 7.50435 11.5511C7.56152 11.5283 7.62298 11.5163 7.68515 11.5159C7.74731 11.5155 7.80894 11.5266 7.86646 11.5487C7.92397 11.5708 7.97623 11.6034 8.02018 11.6446C8.06413 11.6858 8.0989 11.7348 8.12248 11.7886C8.14605 11.8425 8.15796 11.9003 8.1575 11.9585C8.15705 12.0167 8.14424 12.0743 8.11982 12.1279C8.09541 12.1814 8.05987 12.2299 8.01528 12.2705L4.49791 15.5671Z" fill="white"/>
<path fill-rule="evenodd" clip-rule="evenodd" d="M3.65962 0.128765C3.70315 0.0879418 3.75484 0.0555569 3.81174 0.0334608C3.86863 0.0113651 3.92962 -7.48443e-06 3.99121 -7.47938e-06C4.0528 -7.47434e-06 4.11379 0.0113651 4.17069 0.0334608C4.22759 0.0555569 4.27928 0.0879418 4.3228 0.128765L7.84017 3.42539C7.88469 3.46598 7.92015 3.51445 7.94451 3.56799C7.96886 3.62152 7.98162 3.67905 7.98204 3.73725C7.98247 3.79544 7.97055 3.85313 7.94698 3.90697C7.92341 3.96081 7.88866 4.00973 7.84474 4.05089C7.80082 4.09204 7.74861 4.12462 7.69115 4.14672C7.63368 4.16882 7.5721 4.18001 7.50998 4.17963C7.44786 4.17926 7.38644 4.16733 7.32928 4.14453C7.27212 4.12174 7.22037 4.08854 7.17702 4.04685L3.99124 1.06104L0.805454 4.04685C0.762124 4.08861 0.710365 4.12188 0.653186 4.14474C0.596008 4.16759 0.53455 4.17957 0.472385 4.17998C0.41022 4.18039 0.348588 4.16922 0.291073 4.14712C0.233558 4.12502 0.181305 4.09243 0.137354 4.05124C0.0934029 4.01006 0.0586291 3.9611 0.0350542 3.90721C0.0114794 3.85333 -0.00042578 3.79559 3.0082e-05 3.73736C0.000485944 3.67912 0.0132943 3.62156 0.0377102 3.568C0.0621257 3.51444 0.0976625 3.46597 0.142253 3.42539L3.65962 0.128765Z" fill="white"/>
</svg>
